Newaita-dark/mimetypes/48/office-database.svg

<svg height="48" viewBox="0 0 48 48" width="48" xmlns="http://www.w3.org/2000/svg" xmlns:xlink="http://www.w3.org/1999/xlink"><linearGradient id="a" gradientUnits="userSpaceOnUse" x1="24.807066" x2="24.807066" y1="42.0509045" y2="44.03547050005"><stop offset="0" stop-opacity=".27451"/><stop offset="1" stop-opacity="0"/></linearGradient><linearGradient id="b"><stop offset="0" stop-opacity=".313726"/><stop offset=".222222" stop-opacity=".27451"/><stop offset="1" stop-opacity="0"/></linearGradient><radialGradient id="c" cx="450.908936" cy="189.579361" gradientTransform="matrix(.00000026 -.117199 -.210958 -.00000015 74.226854 95.392999)" gradientUnits="userSpaceOnUse" r="21.166656" xlink:href="#b"/><radialGradient id="d" cx="450.908936" cy="189.579361" gradientTransform="matrix(-.00000026 .117199 .210958 .00000015 -27.589573 -11.291218)" gradientUnits="userSpaceOnUse" r="21.166656" xlink:href="#b"/><radialGradient id="e" cx="450.908936" cy="189.579361" gradientTransform="matrix(-.00000026 -.117199 .210958 -.00000015 -27.589573 95.392999)" gradientUnits="userSpaceOnUse" r="21.166656" xlink:href="#b"/><radialGradient id="f" cx="450.908936" cy="189.579361" gradientTransform="matrix(.00000026 .117199 -.210958 .00000015 74.226851 -11.291219)" gradientUnits="userSpaceOnUse" r="21.166656" xlink:href="#b"/><linearGradient id="g" gradientUnits="userSpaceOnUse" x1="23.3186456251" x2="23.3186456251" y1="34.11263899995" y2="13.27470200002"><stop offset="0" stop-color="#9e9e9e"/><stop offset="1" stop-color="#bdbdbd"/></linearGradient><linearGradient id="h" gradientUnits="userSpaceOnUse" x1="248.708344" x2="248.708344" xlink:href="#b" y1="148.833328" y2="-73.416664"/><linearGradient id="i"><stop offset="0" stop-color="#bdbdbd"/><stop offset=".5" stop-color="#e0e0e0"/><stop offset="1" stop-color="#bdbdbd"/></linearGradient><linearGradient id="j" gradientUnits="userSpaceOnUse" x1="7.93826174998" x2="38.69902725" xlink:href="#i" y1="36.097205" y2="36.097205"/><linearGradient id="k" gradientUnits="userSpaceOnUse" x1="7.79762324998" x2="38.69902725" xlink:href="#i" y1="10.29785299995" y2="10.2978545001"/><linearGradient id="l" gradientUnits="userSpaceOnUse" x1="7.93826174998" x2="38.69902725" xlink:href="#i" y1="23.19752899998" y2="23.19752899998"/><path d="m11.90625 42.050781h22.824219v1.984375h-22.824219zm0 0" fill="url(#a)"/><path d="m34.730469 42.050781h3.96875v-1.984375h-3.96875zm0 0" fill="url(#c)"/><path d="m11.90625 42.050781h-3.96875v1.984375h3.96875zm0 0" fill="url(#d)"/><path d="m11.90625 42.050781h-3.96875v-1.984375h3.96875zm0 0" fill="url(#e)"/><path d="m34.730469 42.050781h3.96875v1.984375h-3.96875zm0 0" fill="url(#f)"/><path d="m7.9375 39.296875v.769531c0 1.097656.886719 1.984375 1.984375 1.984375h26.792969c1.097656 0 1.984375-.886719 1.984375-1.984375v-.769531c0 1.097656-.886719 1.984375-1.984375 1.984375h-26.792969c-1.097656 0-1.984375-.886719-1.984375-1.984375zm0 0" fill-opacity=".235294"/><path d="m9.921875 13.273438h26.792969v20.839843h-26.792969zm0 0" fill="url(#g)"/><path d="m105.823228-73.430186h285.764377v222.270441h-285.764377zm0 0" fill="url(#h)" stroke="#212121" stroke-linecap="round" stroke-linejoin="round" stroke-width="3" transform="matrix(.093759 0 0 .093759 0 20.158175)"/><path d="m9.921875 30.144531h26.792969c1.09375 0 1.984375.886719 1.984375 1.984375v7.9375c0 1.097656-.890625 1.984375-1.984375 1.984375h-26.792969c-1.09375 0-1.984375-.886719-1.984375-1.984375v-7.9375c0-1.097656.890625-1.984375 1.984375-1.984375zm0 0" fill="url(#j)"/><path d="m9.921875 4.34375h26.792969c1.09375 0 1.984375.890625 1.984375 1.984375v7.9375c0 1.097656-.890625 1.984375-1.984375 1.984375h-26.792969c-1.09375 0-1.984375-.886719-1.984375-1.984375v-7.9375c0-1.09375.890625-1.984375 1.984375-1.984375zm0 0" fill="url(#k)"/><path d="m9.921875 17.242188h26.792969c1.09375 0 1.984375.890624 1.984375 1.984374v7.941407c0 1.09375-.890625 1.984375-1.984375 1.984375h-26.792969c-1.09375 0-1.984375-.890625-1.984375-1.984375v-7.941407c0-1.09375.890625-1.984374 1.984375-1.984374zm0 0" fill="url(#l)"/><path d="m9.921875 30.144531c-1.097656 0-1.984375.882813-1.984375 1.984375v.496094c0-1.101562.886719-1.984375 1.984375-1.984375h26.792969c1.097656 0 1.984375.882813 1.984375 1.984375v-.496094c0-1.101562-.886719-1.984375-1.984375-1.984375zm0 0" fill="#fff"/><path d="m9.921875 4.34375c-1.097656 0-1.984375.886719-1.984375 1.984375v.496094c0-1.097657.886719-1.984375 1.984375-1.984375h26.792969c1.097656 0 1.984375.886718 1.984375 1.984375v-.496094c0-1.097656-.886719-1.984375-1.984375-1.984375zm0 0" fill="#fff"/><path d="m9.921875 17.242188c-1.097656 0-1.984375.886718-1.984375 1.984374v.496094c0-1.097656.886719-1.984375 1.984375-1.984375h26.792969c1.097656 0 1.984375.886719 1.984375 1.984375v-.496094c0-1.097656-.886719-1.984374-1.984375-1.984374zm0 0" fill="#fff"/><g fill-opacity=".235294"><path d="m7.9375 39.695312v.371094c0 1.097656.886719 1.984375 1.984375 1.984375h26.792969c1.097656 0 1.984375-.886719 1.984375-1.984375v-.371094c0 1.097657-.886719 1.984376-1.984375 1.984376h-26.792969c-1.097656 0-1.984375-.886719-1.984375-1.984376zm0 0"/><path d="m7.9375 13.894531v.371094c0 1.101563.886719 1.984375 1.984375 1.984375h26.792969c1.097656 0 1.984375-.882812 1.984375-1.984375v-.371094c0 1.101563-.886719 1.984375-1.984375 1.984375h-26.792969c-1.097656 0-1.984375-.882812-1.984375-1.984375zm0 0"/><path d="m7.9375 26.792969v.375c0 1.097656.886719 1.984375 1.984375 1.984375h26.792969c1.097656 0 1.984375-.886719 1.984375-1.984375v-.375c0 1.101562-.886719 1.984375-1.984375 1.984375h-26.792969c-1.097656 0-1.984375-.882813-1.984375-1.984375zm0 0"/></g><path d="m105.823228 106.510964h285.764377c11.665553 0 21.164646 9.45743 21.164646 21.164645v84.658583c0 11.707215-9.499093 21.164645-21.164646 21.164645h-285.764377c-11.665553 0-21.164646-9.45743-21.164646-21.164645v-84.658583c0-11.707215 9.499093-21.164645 21.164646-21.164645zm0 0" fill="none" stroke="#212121" stroke-linecap="round" stroke-linejoin="round" stroke-width="3" transform="matrix(.093759 0 0 .093759 0 20.158175)"/><path d="m105.823228-168.671091h285.764377c11.665553 0 21.164646 9.499093 21.164646 21.164646v84.658582c0 11.707215-9.499093 21.164645-21.164646 21.164645h-285.764377c-11.665553 0-21.164646-9.45743-21.164646-21.164645v-84.658582c0-11.665553 9.499093-21.164646 21.164646-21.164646zm0 0" fill="none" stroke="#212121" stroke-linecap="round" stroke-linejoin="round" stroke-width="3" transform="matrix(.093759 0 0 .093759 0 20.158175)"/><path d="m105.823228-31.100895h285.764377c11.665553 0 21.164646 9.499093 21.164646 21.164646v84.700245c0 11.665552-9.499093 21.164645-21.164646 21.164645h-285.764377c-11.665553 0-21.164646-9.499093-21.164646-21.164645v-84.700245c0-11.665553 9.499093-21.164646 21.164646-21.164646zm0 0" fill="none" stroke="#212121" stroke-linecap="round" stroke-linejoin="round" stroke-width="3" transform="matrix(.093759 0 0 .093759 0 20.158175)"/></svg>

<?xml version="1.0" encoding="UTF-8"?>
<svg xmlns="http://www.w3.org/2000/svg" xmlns:xlink="http://www.w3.org/1999/xlink" width="48px" height="48px" viewBox="0 0 48 48" version="1.1">
<defs>
<linearGradient id="linear0" gradientUnits="userSpaceOnUse" x1="254" y1="233.5" x2="254" y2="254.666672" gradientTransform="matrix(0.093759,0,0,0.093759,0.99228,20.158178)">
<stop offset="0" style="stop-color:rgb(0%,0%,0%);stop-opacity:0.27451;"/>
<stop offset="1" style="stop-color:rgb(0%,0%,0%);stop-opacity:0;"/>
</linearGradient>
<radialGradient id="radial0" gradientUnits="userSpaceOnUse" cx="450.908936" cy="189.579361" fx="450.908936" fy="189.579361" r="21.166656" gradientTransform="matrix(0.000000261256,-0.117199,-0.210958,-0.000000152308,74.226854,95.392999)">
<stop offset="0" style="stop-color:rgb(0%,0%,0%);stop-opacity:0.313726;"/>
<stop offset="0.222222" style="stop-color:rgb(0%,0%,0%);stop-opacity:0.27451;"/>
<stop offset="1" style="stop-color:rgb(0%,0%,0%);stop-opacity:0;"/>
</radialGradient>
<radialGradient id="radial1" gradientUnits="userSpaceOnUse" cx="450.908936" cy="189.579361" fx="450.908936" fy="189.579361" r="21.166656" gradientTransform="matrix(-0.000000261256,0.117199,0.210958,0.000000152308,-27.589573,-11.291218)">
<stop offset="0" style="stop-color:rgb(0%,0%,0%);stop-opacity:0.313726;"/>
<stop offset="0.222222" style="stop-color:rgb(0%,0%,0%);stop-opacity:0.27451;"/>
<stop offset="1" style="stop-color:rgb(0%,0%,0%);stop-opacity:0;"/>
</radialGradient>
<radialGradient id="radial2" gradientUnits="userSpaceOnUse" cx="450.908936" cy="189.579361" fx="450.908936" fy="189.579361" r="21.166656" gradientTransform="matrix(-0.000000261256,-0.117199,0.210958,-0.000000152308,-27.589573,95.392999)">
<stop offset="0" style="stop-color:rgb(0%,0%,0%);stop-opacity:0.313726;"/>
<stop offset="0.222222" style="stop-color:rgb(0%,0%,0%);stop-opacity:0.27451;"/>
<stop offset="1" style="stop-color:rgb(0%,0%,0%);stop-opacity:0;"/>
</radialGradient>
<radialGradient id="radial3" gradientUnits="userSpaceOnUse" cx="450.908936" cy="189.579361" fx="450.908936" fy="189.579361" r="21.166656" gradientTransform="matrix(0.000000261256,0.117199,-0.210958,0.000000152308,74.226851,-11.291219)">
<stop offset="0" style="stop-color:rgb(0%,0%,0%);stop-opacity:0.313726;"/>
<stop offset="0.222222" style="stop-color:rgb(0%,0%,0%);stop-opacity:0.27451;"/>
<stop offset="1" style="stop-color:rgb(0%,0%,0%);stop-opacity:0;"/>
</radialGradient>
<linearGradient id="linear1" gradientUnits="userSpaceOnUse" x1="248.708344" y1="148.833328" x2="248.708344" y2="-73.416664" gradientTransform="matrix(0.093759,0,0,0.093759,0,20.158175)">
<stop offset="0" style="stop-color:rgb(61.960787%,61.960787%,61.960787%);stop-opacity:1;"/>
<stop offset="1" style="stop-color:rgb(74.117649%,74.117649%,74.117649%);stop-opacity:1;"/>
</linearGradient>
<linearGradient id="linear2" gradientUnits="userSpaceOnUse" x1="248.708344" y1="148.833328" x2="248.708344" y2="-73.416664" gradientTransform="matrix(1,0,0,1,0,0)">
<stop offset="0" style="stop-color:rgb(0%,0%,0%);stop-opacity:0.313726;"/>
<stop offset="0.222222" style="stop-color:rgb(0%,0%,0%);stop-opacity:0.27451;"/>
<stop offset="1" style="stop-color:rgb(0%,0%,0%);stop-opacity:0;"/>
</linearGradient>
<linearGradient id="linear3" gradientUnits="userSpaceOnUse" x1="84.666664" y1="170" x2="412.75" y2="170" gradientTransform="matrix(0.093759,0,0,0.093759,0,20.158175)">
<stop offset="0" style="stop-color:rgb(74.117649%,74.117649%,74.117649%);stop-opacity:1;"/>
<stop offset="0.5" style="stop-color:rgb(87.843138%,87.843138%,87.843138%);stop-opacity:1;"/>
<stop offset="1" style="stop-color:rgb(74.117649%,74.117649%,74.117649%);stop-opacity:1;"/>
</linearGradient>
<linearGradient id="linear4" gradientUnits="userSpaceOnUse" x1="83.166664" y1="-105.166672" x2="412.75" y2="-105.166656" gradientTransform="matrix(0.093759,0,0,0.093759,0,20.158175)">
<stop offset="0" style="stop-color:rgb(74.117649%,74.117649%,74.117649%);stop-opacity:1;"/>
<stop offset="0.5" style="stop-color:rgb(87.843138%,87.843138%,87.843138%);stop-opacity:1;"/>
<stop offset="1" style="stop-color:rgb(74.117649%,74.117649%,74.117649%);stop-opacity:1;"/>
</linearGradient>
<linearGradient id="linear5" gradientUnits="userSpaceOnUse" x1="84.666664" y1="32.416664" x2="412.75" y2="32.416664" gradientTransform="matrix(0.093759,0,0,0.093759,0,20.158175)">
<stop offset="0" style="stop-color:rgb(74.117649%,74.117649%,74.117649%);stop-opacity:1;"/>
<stop offset="0.5" style="stop-color:rgb(87.843138%,87.843138%,87.843138%);stop-opacity:1;"/>
<stop offset="1" style="stop-color:rgb(74.117649%,74.117649%,74.117649%);stop-opacity:1;"/>
</linearGradient>
</defs>
<g id="surface1">
<path style=" stroke:none;fill-rule:nonzero;fill:url(#linear0);" d="M 11.90625 42.050781 L 34.730469 42.050781 L 34.730469 44.035156 L 11.90625 44.035156 Z M 11.90625 42.050781 "/>
<path style=" stroke:none;fill-rule:nonzero;fill:url(#radial0);" d="M 34.730469 42.050781 L 38.699219 42.050781 L 38.699219 40.066406 L 34.730469 40.066406 Z M 34.730469 42.050781 "/>
<path style=" stroke:none;fill-rule:nonzero;fill:url(#radial1);" d="M 11.90625 42.050781 L 7.9375 42.050781 L 7.9375 44.035156 L 11.90625 44.035156 Z M 11.90625 42.050781 "/>
<path style=" stroke:none;fill-rule:nonzero;fill:url(#radial2);" d="M 11.90625 42.050781 L 7.9375 42.050781 L 7.9375 40.066406 L 11.90625 40.066406 Z M 11.90625 42.050781 "/>
<path style=" stroke:none;fill-rule:nonzero;fill:url(#radial3);" d="M 34.730469 42.050781 L 38.699219 42.050781 L 38.699219 44.035156 L 34.730469 44.035156 Z M 34.730469 42.050781 "/>
<path style=" stroke:none;fill-rule:nonzero;fill:rgb(0%,0%,0%);fill-opacity:0.235294;" d="M 7.9375 39.296875 L 7.9375 40.066406 C 7.9375 41.164062 8.824219 42.050781 9.921875 42.050781 L 36.714844 42.050781 C 37.8125 42.050781 38.699219 41.164062 38.699219 40.066406 L 38.699219 39.296875 C 38.699219 40.394531 37.8125 41.28125 36.714844 41.28125 L 9.921875 41.28125 C 8.824219 41.28125 7.9375 40.394531 7.9375 39.296875 Z M 7.9375 39.296875 "/>
<path style=" stroke:none;fill-rule:nonzero;fill:url(#linear1);" d="M 9.921875 13.273438 L 36.714844 13.273438 L 36.714844 34.113281 L 9.921875 34.113281 Z M 9.921875 13.273438 "/>
<path style="fill-rule:nonzero;fill:url(#linear2);stroke-width:3;stroke-linecap:round;stroke-linejoin:round;stroke:rgb(12.941177%,12.941177%,12.941177%);stroke-opacity:1;stroke-miterlimit:4;" d="M 105.823228 -73.430186 L 391.587605 -73.430186 L 391.587605 148.840255 L 105.823228 148.840255 Z M 105.823228 -73.430186 " transform="matrix(0.093759,0,0,0.093759,0,20.158175)"/>
<path style=" stroke:none;fill-rule:nonzero;fill:url(#linear3);" d="M 9.921875 30.144531 L 36.714844 30.144531 C 37.808594 30.144531 38.699219 31.03125 38.699219 32.128906 L 38.699219 40.066406 C 38.699219 41.164062 37.808594 42.050781 36.714844 42.050781 L 9.921875 42.050781 C 8.828125 42.050781 7.9375 41.164062 7.9375 40.066406 L 7.9375 32.128906 C 7.9375 31.03125 8.828125 30.144531 9.921875 30.144531 Z M 9.921875 30.144531 "/>
<path style=" stroke:none;fill-rule:nonzero;fill:url(#linear4);" d="M 9.921875 4.34375 L 36.714844 4.34375 C 37.808594 4.34375 38.699219 5.234375 38.699219 6.328125 L 38.699219 14.265625 C 38.699219 15.363281 37.808594 16.25 36.714844 16.25 L 9.921875 16.25 C 8.828125 16.25 7.9375 15.363281 7.9375 14.265625 L 7.9375 6.328125 C 7.9375 5.234375 8.828125 4.34375 9.921875 4.34375 Z M 9.921875 4.34375 "/>
<path style=" stroke:none;fill-rule:nonzero;fill:url(#linear5);" d="M 9.921875 17.242188 L 36.714844 17.242188 C 37.808594 17.242188 38.699219 18.132812 38.699219 19.226562 L 38.699219 27.167969 C 38.699219 28.261719 37.808594 29.152344 36.714844 29.152344 L 9.921875 29.152344 C 8.828125 29.152344 7.9375 28.261719 7.9375 27.167969 L 7.9375 19.226562 C 7.9375 18.132812 8.828125 17.242188 9.921875 17.242188 Z M 9.921875 17.242188 "/>
<path style=" stroke:none;fill-rule:nonzero;fill:rgb(100%,100%,100%);fill-opacity:1;" d="M 9.921875 30.144531 C 8.824219 30.144531 7.9375 31.027344 7.9375 32.128906 L 7.9375 32.625 C 7.9375 31.523438 8.824219 30.640625 9.921875 30.640625 L 36.714844 30.640625 C 37.8125 30.640625 38.699219 31.523438 38.699219 32.625 L 38.699219 32.128906 C 38.699219 31.027344 37.8125 30.144531 36.714844 30.144531 Z M 9.921875 30.144531 "/>
<path style=" stroke:none;fill-rule:nonzero;fill:rgb(100%,100%,100%);fill-opacity:1;" d="M 9.921875 4.34375 C 8.824219 4.34375 7.9375 5.230469 7.9375 6.328125 L 7.9375 6.824219 C 7.9375 5.726562 8.824219 4.839844 9.921875 4.839844 L 36.714844 4.839844 C 37.8125 4.839844 38.699219 5.726562 38.699219 6.824219 L 38.699219 6.328125 C 38.699219 5.230469 37.8125 4.34375 36.714844 4.34375 Z M 9.921875 4.34375 "/>
<path style=" stroke:none;fill-rule:nonzero;fill:rgb(100%,100%,100%);fill-opacity:1;" d="M 9.921875 17.242188 C 8.824219 17.242188 7.9375 18.128906 7.9375 19.226562 L 7.9375 19.722656 C 7.9375 18.625 8.824219 17.738281 9.921875 17.738281 L 36.714844 17.738281 C 37.8125 17.738281 38.699219 18.625 38.699219 19.722656 L 38.699219 19.226562 C 38.699219 18.128906 37.8125 17.242188 36.714844 17.242188 Z M 9.921875 17.242188 "/>
<path style=" stroke:none;fill-rule:nonzero;fill:rgb(0%,0%,0%);fill-opacity:0.235294;" d="M 7.9375 39.695312 L 7.9375 40.066406 C 7.9375 41.164062 8.824219 42.050781 9.921875 42.050781 L 36.714844 42.050781 C 37.8125 42.050781 38.699219 41.164062 38.699219 40.066406 L 38.699219 39.695312 C 38.699219 40.792969 37.8125 41.679688 36.714844 41.679688 L 9.921875 41.679688 C 8.824219 41.679688 7.9375 40.792969 7.9375 39.695312 Z M 7.9375 39.695312 "/>
<path style=" stroke:none;fill-rule:nonzero;fill:rgb(0%,0%,0%);fill-opacity:0.235294;" d="M 7.9375 13.894531 L 7.9375 14.265625 C 7.9375 15.367188 8.824219 16.25 9.921875 16.25 L 36.714844 16.25 C 37.8125 16.25 38.699219 15.367188 38.699219 14.265625 L 38.699219 13.894531 C 38.699219 14.996094 37.8125 15.878906 36.714844 15.878906 L 9.921875 15.878906 C 8.824219 15.878906 7.9375 14.996094 7.9375 13.894531 Z M 7.9375 13.894531 "/>
<path style=" stroke:none;fill-rule:nonzero;fill:rgb(0%,0%,0%);fill-opacity:0.235294;" d="M 7.9375 26.792969 L 7.9375 27.167969 C 7.9375 28.265625 8.824219 29.152344 9.921875 29.152344 L 36.714844 29.152344 C 37.8125 29.152344 38.699219 28.265625 38.699219 27.167969 L 38.699219 26.792969 C 38.699219 27.894531 37.8125 28.777344 36.714844 28.777344 L 9.921875 28.777344 C 8.824219 28.777344 7.9375 27.894531 7.9375 26.792969 Z M 7.9375 26.792969 "/>
<path style="fill:none;stroke-width:3;stroke-linecap:round;stroke-linejoin:round;stroke:rgb(12.941177%,12.941177%,12.941177%);stroke-opacity:1;stroke-miterlimit:4;" d="M 105.823228 106.510964 L 391.587605 106.510964 C 403.253158 106.510964 412.752251 115.968394 412.752251 127.675609 L 412.752251 212.334192 C 412.752251 224.041407 403.253158 233.498837 391.587605 233.498837 L 105.823228 233.498837 C 94.157675 233.498837 84.658582 224.041407 84.658582 212.334192 L 84.658582 127.675609 C 84.658582 115.968394 94.157675 106.510964 105.823228 106.510964 Z M 105.823228 106.510964 " transform="matrix(0.093759,0,0,0.093759,0,20.158175)"/>
<path style="fill:none;stroke-width:3;stroke-linecap:round;stroke-linejoin:round;stroke:rgb(12.941177%,12.941177%,12.941177%);stroke-opacity:1;stroke-miterlimit:4;" d="M 105.823228 -168.671091 L 391.587605 -168.671091 C 403.253158 -168.671091 412.752251 -159.171998 412.752251 -147.506445 L 412.752251 -62.847863 C 412.752251 -51.140648 403.253158 -41.683218 391.587605 -41.683218 L 105.823228 -41.683218 C 94.157675 -41.683218 84.658582 -51.140648 84.658582 -62.847863 L 84.658582 -147.506445 C 84.658582 -159.171998 94.157675 -168.671091 105.823228 -168.671091 Z M 105.823228 -168.671091 " transform="matrix(0.093759,0,0,0.093759,0,20.158175)"/>
<path style="fill:none;stroke-width:3;stroke-linecap:round;stroke-linejoin:round;stroke:rgb(12.941177%,12.941177%,12.941177%);stroke-opacity:1;stroke-miterlimit:4;" d="M 105.823228 -31.100895 L 391.587605 -31.100895 C 403.253158 -31.100895 412.752251 -21.601802 412.752251 -9.936249 L 412.752251 74.763996 C 412.752251 86.429548 403.253158 95.928641 391.587605 95.928641 L 105.823228 95.928641 C 94.157675 95.928641 84.658582 86.429548 84.658582 74.763996 L 84.658582 -9.936249 C 84.658582 -21.601802 94.157675 -31.100895 105.823228 -31.100895 Z M 105.823228 -31.100895 " transform="matrix(0.093759,0,0,0.093759,0,20.158175)"/>
</g>
</svg>
